X: 19329
T: Jack Is Yet Alive
R: reel
M: 4/4
K: Gmajor
g2G GAB|A2A ABC|d2B c2A|B2G FED|G2G GAB|
A2A ABC|dBd cBA|G3 G3:|
|:g2g gbg|f2f faf|efg agf|G3G3:|gbg gbg|faf faf|efe efg|abg fed|gab Bcd|efg ABC|dcB AGF|G3 G3||

